SeaMapSymbols/hazard.svg

<?xml version="1.0" encoding="UTF-8" standalone="no"?>
<!-- Created with Inkscape (http://www.inkscape.org/) -->

<svg
   xmlns:dc="http://purl.org/dc/elements/1.1/"
   xmlns:cc="http://creativecommons.org/ns#"
   xmlns:rdf="http://www.w3.org/1999/02/22-rdf-syntax-ns#"
   xmlns:svg="http://www.w3.org/2000/svg"
   xmlns="http://www.w3.org/2000/svg"
   xmlns:xlink="http://www.w3.org/1999/xlink"
   xmlns:sodipodi="http://sodipodi.sourceforge.net/DTD/sodipodi-0.dtd"
   xmlns:inkscape="http://www.inkscape.org/namespaces/inkscape"
   width="120"
   height="120"
   id="svg2"
   version="1.1"
   inkscape:version="0.48.2 r9819"
   sodipodi:docname="hazard.svg"
   style="display:inline"
   inkscape:export-filename="/Users/mherring/boatsw/oseam/openseamap/josm/icons/WindSurfing16.png"
   inkscape:export-xdpi="12"
   inkscape:export-ydpi="12">
  <defs
     id="defs4">
    <filter
       height="1.8382957"
       y="-0.41914788"
       width="1.2321891"
       x="-0.11609452"
       id="filter6987-3"
       inkscape:collect="always">
      <feGaussianBlur
         id="feGaussianBlur6989-1"
         stdDeviation="3.6772358"
         inkscape:collect="always" />
    </filter>
    <linearGradient
       id="linearGradient6898-1"
       inkscape:collect="always">
      <stop
         id="stop6900-57"
         offset="0"
         style="stop-color:#40c0ff;stop-opacity:1" />
      <stop
         id="stop6902-23"
         offset="1"
         style="stop-color:#ffffff;stop-opacity:1" />
    </linearGradient>
    <linearGradient
       id="linearGradient6968-7"
       inkscape:collect="always">
      <stop
         id="stop6970-4"
         offset="0"
         style="stop-color:#00213e;stop-opacity:1" />
      <stop
         id="stop6972-3"
         offset="1"
         style="stop-color:#0090be;stop-opacity:1" />
    </linearGradient>
    <linearGradient
       inkscape:collect="always"
       xlink:href="#linearGradient6898-1"
       id="linearGradient77479"
       gradientUnits="userSpaceOnUse"
       x1="38.536026"
       y1="1.7416568"
       x2="49.272728"
       y2="78.669807" />
    <linearGradient
       inkscape:collect="always"
       xlink:href="#linearGradient6968-7"
       id="linearGradient77481"
       gradientUnits="userSpaceOnUse"
       gradientTransform="translate(-2,0)"
       x1="70.178581"
       y1="73.227554"
       x2="4.4642854"
       y2="69.834694" />
    <clipPath
       clipPathUnits="userSpaceOnUse"
       id="clipPath77505">
      <rect
         style="fill:none;stroke:none"
         id="rect77507"
         width="80"
         height="80"
         x="20"
         y="20"
         rx="20"
         ry="20" />
    </clipPath>
  </defs>
  <sodipodi:namedview
     id="base"
     pagecolor="#ffffff"
     bordercolor="#666666"
     borderopacity="1.0"
     inkscape:pageopacity="0.0"
     inkscape:pageshadow="2"
     inkscape:zoom="2.8"
     inkscape:cx="10.112413"
     inkscape:cy="30.146701"
     inkscape:document-units="px"
     inkscape:current-layer="g6761"
     showgrid="true"
     inkscape:window-width="1920"
     inkscape:window-height="1088"
     inkscape:window-x="0"
     inkscape:window-y="0"
     inkscape:window-maximized="1"
     inkscape:snap-global="false">
    <inkscape:grid
       type="xygrid"
       id="grid3004"
       empspacing="5"
       visible="true"
       enabled="true"
       snapvisiblegridlinesonly="true" />
  </sodipodi:namedview>
  <metadata
     id="metadata7">
    <rdf:RDF>
      <cc:Work
         rdf:about="">
        <dc:format>image/svg+xml</dc:format>
        <dc:type
           rdf:resource="http://purl.org/dc/dcmitype/StillImage" />
        <dc:title />
      </cc:Work>
    </rdf:RDF>
  </metadata>
  <g
     inkscape:label="Whitewater Hazard"
     id="g6761"
     inkscape:groupmode="layer"
     style="display:inline">
    <g
       id="g77483"
       clip-path="url(#clipPath77505)">
      <g
         transform="translate(157.5,7.1428572)"
         id="g77461">
        <g
           id="layer4-08"
           inkscape:label="BackGr"
           style="display:inline"
           transform="translate(-136.93591,13.930459)">
          <rect
             style="fill:url(#linearGradient77479);fill-opacity:1;fill-rule:evenodd;stroke:none;stroke-width:1;marker:none;visibility:visible;display:inline;overflow:visible;enable-background:accumulate"
             id="rect6895-6"
             width="75.473404"
             height="75.928154"
             x="2.0717416"
             y="2.2416568"
             rx="21.095205"
             ry="18.560369" />
          <path
             inkscape:connector-curvature="0"
             transform="matrix(1.1723042,-0.1433347,0.1004078,1.6734954,-5.0901022,-7.7929581)"
             style="fill:#f6fcff;fill-opacity:1;fill-rule:evenodd;stroke:none;stroke-width:1;marker:none;visibility:visible;display:inline;overflow:visible;filter:url(#filter6987-3);enable-background:accumulate"
             d="m 16.996063,2.8308038 36.99913,2.6482146 c 11.686743,0 13.200822,3.9669243 16.403383,6.4466326 l 5.637431,7.372575 c 0,2.205409 -18.080826,2.70042 -29.09666,1.144856 L 21.58656,22.01843 C 8.8425892,23.899356 -0.16431579,21.6206 -0.29651929,18.866192 L 3.5464729,9.6172362 C 5.1934696,7.0152163 5.3093198,2.8308038 16.996063,2.8308038 z"
             id="rect6906-2"
             sodipodi:nodetypes="ccccccccc" />
        </g>
        <g
           id="layer2-06"
           inkscape:label="Water"
           style="display:inline"
           transform="translate(-136.93591,13.930459)">
          <path
             inkscape:connector-curvature="0"
             style="fill:url(#linearGradient77481);fill-opacity:1;fill-rule:evenodd;stroke:none;stroke-width:1;marker:none;visibility:visible;display:inline;overflow:visible;enable-background:accumulate"
             d="m 4.2737765,65.178574 c 22.9237805,1.900509 63.0490585,4.191505 71.9167515,0.648198 l -4.61908,6.620936 c -2.5,2.328623 -18.485604,6.838025 -8.416634,4.695168 l -46.381038,0.357143 c -1.002458,0 -9.1233261,-5.402259 -11.9804689,-7.195168 L 2.4642854,66.480886 c 0,-0.721481 0.807033,-1.302312 1.8094911,-1.302312 z"
             id="rect6955-5"
             sodipodi:nodetypes="cccccccc" />
        </g>
        <g
           id="layer3-86"
           inkscape:label="Arrow"
           style="display:inline"
           transform="translate(-136.93591,13.930459)">
          <g
             id="g40389">
            <path
               inkscape:connector-curvature="0"
               style="fill:#ffa82d;fill-opacity:1;fill-rule:evenodd;stroke:#ff4000;stroke-width:3.99999976;stroke-linecap:butt;stroke-linejoin:round;stroke-miterlimit:4;stroke-opacity:1;stroke-dasharray:none;stroke-dashoffset:0;marker:none;visibility:visible;display:inline;overflow:visible;enable-background:accumulate"
               d="M 15.717,59 65.3233,59 40.52015,9.3937003 15.717,59 z"
               id="path40391"
               sodipodi:nodetypes="cccc" />
            <g
               id="g40393"
               transform="matrix(1.3846154,0,0,1,-16.347981,2.4642844)">
              <rect
                 ry="15.357142"
                 rx="0"
                 y="22.321428"
                 x="39.285713"
                 height="19.107141"
                 width="3.5714285"
                 id="rect40395"
                 style="fill:#ffffff;fill-opacity:1;fill-rule:evenodd;stroke:#ffffff;stroke-width:1.69967318;stroke-linecap:butt;stroke-linejoin:round;stroke-miterlimit:4;stroke-opacity:1;stroke-dasharray:none;stroke-dashoffset:0;marker:none;visibility:visible;display:inline;overflow:visible;enable-background:accumulate" />
              <rect
                 style="fill:#ffffff;fill-opacity:1;fill-rule:evenodd;stroke:#ffffff;stroke-width:1.69967318;stroke-linecap:butt;stroke-linejoin:round;stroke-miterlimit:4;stroke-opacity:1;stroke-dasharray:none;stroke-dashoffset:0;marker:none;visibility:visible;display:inline;overflow:visible;enable-background:accumulate"
                 id="rect40397"
                 width="3.5714285"
                 height="4.4642854"
                 x="39.285713"
                 y="46.07143"
                 rx="0"
                 ry="15.357141" />
            </g>
          </g>
          <g
             id="g40383"
             transform="translate(-0.52015,0)">
            <path
               inkscape:connector-curvature="0"
               sodipodi:nodetypes="cccc"
               id="path32345"
               d="M 15.717,59 65.3233,59 40.52015,9.3937003 15.717,59 z"
               style="fill:#ffa82d;fill-opacity:1;fill-rule:evenodd;stroke:#ff4000;stroke-width:3.99999976;stroke-linecap:butt;stroke-linejoin:round;stroke-miterlimit:4;stroke-opacity:1;stroke-dasharray:none;stroke-dashoffset:0;marker:none;visibility:visible;display:inline;overflow:visible;enable-background:accumulate" />
            <g
               transform="matrix(1.3846154,0,0,1,-16.347981,2.4642844)"
               id="g32351">
              <rect
                 style="fill:#ffffff;fill-opacity:1;fill-rule:evenodd;stroke:#ffffff;stroke-width:1.69967318;stroke-linecap:butt;stroke-linejoin:round;stroke-miterlimit:4;stroke-opacity:1;stroke-dasharray:none;stroke-dashoffset:0;marker:none;visibility:visible;display:inline;overflow:visible;enable-background:accumulate"
                 id="rect32347"
                 width="3.5714285"
                 height="19.107141"
                 x="39.285713"
                 y="22.321428"
                 rx="0"
                 ry="15.357142" />
              <rect
                 ry="15.357141"
                 rx="0"
                 y="46.07143"
                 x="39.285713"
                 height="4.4642854"
                 width="3.5714285"
                 id="rect32349"
                 style="fill:#ffffff;fill-opacity:1;fill-rule:evenodd;stroke:#ffffff;stroke-width:1.69967318;stroke-linecap:butt;stroke-linejoin:round;stroke-miterlimit:4;stroke-opacity:1;stroke-dasharray:none;stroke-dashoffset:0;marker:none;visibility:visible;display:inline;overflow:visible;enable-background:accumulate" />
            </g>
          </g>
        </g>
      </g>
      <rect
         mask="none"
         style="fill:none;stroke:#00213e;stroke-width:3.99999976;stroke-miterlimit:4;stroke-opacity:1;stroke-dasharray:none;display:inline"
         id="rect7024-8"
         width="76"
         height="76"
         x="22"
         y="22"
         rx="20"
         ry="20" />
    </g>
  </g>
</svg>

<?xml version="1.0" encoding="UTF-8" standalone="no"?>
<!-- Created with Inkscape (http://www.inkscape.org/) -->
<svg id="svg2" xmlns:rdf="http://www.w3.org/1999/02/22-rdf-syntax-ns#" xmlns="http://www.w3.org/2000/svg" height="120" width="120" version="1.1" xmlns:cc="http://creativecommons.org/ns#" xmlns:xlink="http://www.w3.org/1999/xlink" xmlns:dc="http://purl.org/dc/elements/1.1/">
 <defs id="defs4">
  <filter id="filter6987-3" height="1.8383" width="1.2322" y="-.41915" x="-.11609">
   <feGaussianBlur id="feGaussianBlur6989-1" stdDeviation="3.6772358"/>
  </filter>
  <linearGradient id="linearGradient77479" y2="78.67" gradientUnits="userSpaceOnUse" x2="49.273" y1="1.7417" x1="38.536">
   <stop id="stop6900-57" stop-color="#40c0ff" offset="0"/>
   <stop id="stop6902-23" stop-color="#fff" offset="1"/>
  </linearGradient>
  <linearGradient id="linearGradient77481" y2="69.835" gradientUnits="userSpaceOnUse" x2="4.4643" gradientTransform="translate(-2)" y1="73.228" x1="70.179">
   <stop id="stop6970-4" stop-color="#00213e" offset="0"/>
   <stop id="stop6972-3" stop-color="#0090be" offset="1"/>
  </linearGradient>
  <clipPath id="clipPath77505" clipPathUnits="userSpaceOnUse">
   <rect id="rect77507" rx="20" ry="20" height="80" width="80" y="20" x="20" fill="none"/>
  </clipPath>
 </defs>
 <metadata id="metadata7">
  <rdf:RDF>
   <cc:Work rdf:about="">
    <dc:format>image/svg+xml</dc:format>
    <dc:type rdf:resource="http://purl.org/dc/dcmitype/StillImage"/>
    <dc:title/>
   </cc:Work>
  </rdf:RDF>
 </metadata>
 <g id="g6761">
  <g id="g77483" clip-path="url(#clipPath77505)">
   <g id="g77461" transform="translate(157.5 7.1429)">
    <g id="layer4-08" fill-rule="evenodd" transform="translate(-136.94 13.93)">
     <rect id="rect6895-6" rx="21.095" ry="18.56" height="75.928" width="75.473" y="2.2417" x="2.0717" fill="url(#linearGradient77479)"/>
     <path id="rect6906-2" d="m16.996 2.8308 36.999 2.6482c11.687 0 13.201 3.9669 16.403 6.4466l5.6374 7.3726c0 2.2054-18.081 2.7004-29.097 1.1449l-25.351 1.574c-12.744 1.881-21.751-0.397-21.884-3.152l3.8435-9.2488c1.647-2.602 1.7628-6.7864 13.45-6.7864z" transform="matrix(1.1723 -.14333 .10041 1.6735 -5.0901 -7.793)" filter="url(#filter6987-3)" fill="#f6fcff"/>
    </g>
    <g id="layer2-06" transform="translate(-136.94 13.93)">
     <path id="rect6955-5" d="m4.2738 65.179c22.924 1.9005 63.049 4.1915 71.917 0.6482l-4.6191 6.6209c-2.5 2.3286-18.486 6.838-8.4166 4.6952l-46.381 0.35714c-1.0025 0-9.1233-5.4023-11.98-7.1952l-2.3297-3.824c0-0.72148 0.80703-1.3023 1.8095-1.3023z" fill-rule="evenodd" fill="url(#linearGradient77481)"/>
    </g>
    <g id="layer3-86" stroke-linejoin="round" fill-rule="evenodd" transform="translate(-136.94 13.93)">
     <g id="g40389">
      <path id="path40391" d="m15.717 59h49.606l-24.803-49.606-24.803 49.606z" stroke="#ff4000" stroke-width="4" fill="#ffa82d"/>
      <g id="g40393" transform="matrix(1.3846 0 0 1 -16.348 2.4643)" stroke="#fff" stroke-width="1.6997" fill="#fff">
       <rect id="rect40395" height="19.107" rx="0" ry="15.357" width="3.5714" y="22.321" x="39.286"/>
       <rect id="rect40397" height="4.4643" rx="0" ry="15.357" width="3.5714" y="46.071" x="39.286"/>
      </g>
     </g>
     <g id="g40383" transform="translate(-.52015)">
      <path id="path32345" d="m15.717 59h49.606l-24.803-49.606-24.803 49.606z" stroke="#ff4000" stroke-width="4" fill="#ffa82d"/>
      <g id="g32351" transform="matrix(1.3846 0 0 1 -16.348 2.4643)" stroke="#fff" stroke-width="1.6997" fill="#fff">
       <rect id="rect32347" height="19.107" rx="0" ry="15.357" width="3.5714" y="22.321" x="39.286"/>
       <rect id="rect32349" height="4.4643" rx="0" ry="15.357" width="3.5714" y="46.071" x="39.286"/>
      </g>
     </g>
    </g>
   </g>
   <rect id="rect7024-8" rx="20" ry="20" height="76" width="76" stroke="#00213e" y="22" x="22" stroke-width="4" fill="none"/>
  </g>
 </g>
</svg>
